X: 1
T: Kilbrandon
M: 9/8
L: 1/8
R: slip jig
K: Amix
|: AAA d2 e A2 e | AAA d2 e g2 a | AAA d2 e A2 e | ddd B2 A GAB :|
ggg edB d2 e | ABB B2 A GAB | ggg edB d2 e | gaa a2 b age |
ggg edB d2 e | ABB B2 A GAB | d3 e3 dBA | GGG G2 A BdB ||
